X: 2428
T: Ballinalacken, The
R: reel
M: 4/4
K: Edorian
BE E2 BE E2|DEFD ADFD|BE E2 B3 z|AFDE FE E2|
BE E2 BE E2|defd Adfd|GBAF G2 (3ABc|dBAF FE E2|
G2 G2 dGBG|GABG AFDE|G2 AG d2 Bd|AFDE FEEF|
G2 AG dGBG|G2 BG AF D2|GABc d2 e2|dBAG EG G2|

